libs/icons/src/svg/home-alt.svg

<svg width="16" height="16" viewBox="0 0 16 16" fill="none" xmlns="http://www.w3.org/2000/svg">
<g clip-path="url(#clip0_4_510)">
<path fill-rule="evenodd" clip-rule="evenodd" d="M8 0.471985L15.7555 6.81739L14.9112 7.84933L8 2.19473L1.08882 7.84933L0.244507 6.81739L8 0.471985ZM6 10.6667H10V14.6667H12.6667V8.00006H14V16.0001H2V8.00006H3.33333V14.6667H6V10.6667ZM7.33333 14.6667H8.66666V12.0001H7.33333V14.6667ZM9.33333 6.66673H6.66666V9.3334H9.33333V6.66673Z" fill="#202327"/>
</g>
<defs>
<clipPath id="clip0_4_510">
<rect width="16" height="16" fill="white"/>
</clipPath>
</defs>
</svg>

<svg xmlns="http://www.w3.org/2000/svg" viewBox="0 0 16 16" class="sageicon"><path fill-rule="evenodd" d="m8 .472 7.755 6.345-.844 1.032L8 2.195 1.089 7.849.245 6.817 8 .472ZM6 10.667h4v4h2.667V8H14v8H2V8h1.333v6.667H6v-4Zm1.333 4h1.334V12H7.333v2.667Zm2-8H6.667v2.666h2.666V6.667Z"/></svg>
